packages/foundations/icons/Activities/Bat.svg

<svg width="24" height="24" viewBox="0 0 24 24" fill="none" xmlns="http://www.w3.org/2000/svg">
<path fill-rule="evenodd" clip-rule="evenodd" d="M16.9997 0.361328L17 6.55911L17.2294 6.43667C17.755 6.14105 18.191 5.80509 18.5174 5.44498L18.6505 5.28922L19.2319 4.56572L19.9966 5.0916C22.5122 6.82136 24 9.30366 24 12.0001C24 12.3639 23.9729 12.7254 23.9191 13.0832L23.85 13.543L23.4539 13.7865C22.292 14.5007 21.4563 15.6331 21.1404 16.9373L20.8671 18.0655L19.7918 17.6283C19.1608 17.3717 18.4797 17.2377 17.7774 17.2377C15.6342 17.2377 13.7342 18.5 12.9266 20.392L12.0067 22.5474L11.0871 20.3919C10.28 18.5 8.38011 17.2377 6.2369 17.2377C5.67199 17.2377 5.12039 17.3244 4.59603 17.4923L3.59987 17.8115L3.32588 16.8019C2.94153 15.3859 1.94062 14.1928 0.59568 13.5372L0.0993858 13.2953L0.0396905 12.7464C0.013097 12.5019 0 12.253 0 12.0001C0 9.29969 1.49222 6.81439 4.01431 5.08499L4.78031 4.55975L5.36061 5.28492C5.69562 5.70356 6.17759 6.09399 6.77657 6.432L7 6.55311L6.99971 0.361328L10.425 4.23211L10.6223 4.14698C10.9865 4.00293 11.3718 3.91552 11.7681 3.89038L12.0071 3.88282C12.485 3.88282 12.9501 3.97317 13.3851 4.1443L13.579 4.22711L16.9997 0.361328ZM15 5.63811L13.892 6.89113L13.1489 6.2951C12.8139 6.02645 12.4198 5.88282 12.0071 5.88282C11.5922 5.88282 11.1961 6.02801 10.86 6.2994L10.1165 6.89986L9 5.63911L9.0007 9.42081L7.69199 8.99628C6.46559 8.59845 5.40356 8.03404 4.58762 7.34052L4.475 7.24011L4.43352 7.27432C2.94478 8.52416 2.08446 10.0964 2.0059 11.7513L2.001 12.0251L2.20528 12.1508C3.38045 12.9024 4.31259 13.9751 4.8811 15.2339L4.932 15.3521L5.25365 15.3027C5.46955 15.274 5.68744 15.2547 5.9068 15.245L6.2369 15.2377C8.5389 15.2377 10.6431 16.3012 11.988 18.0191L12.006 18.0441L12.1985 17.8073C13.4909 16.2807 15.4037 15.3203 17.5021 15.2428L17.7774 15.2377C18.258 15.2377 18.7326 15.2838 19.1957 15.3741L19.529 15.4471L19.5685 15.3517C20.0696 14.1867 20.8806 13.1715 21.9141 12.4137L21.985 12.3631L21.9935 12.2635L22 12.0001C22 10.257 21.1322 8.59135 19.5733 7.27939L19.532 7.24611L19.4184 7.34756C18.6746 7.97761 17.7276 8.50068 16.6388 8.88862L16.3079 9.00092L15.0007 9.42313L15 5.63811ZM10.5 8.00011C10.7761 8.00011 11 8.21414 11 8.50479V9.49542C11 9.74318 10.8167 9.94924 10.5877 9.99197L10.5 10.0001C10.2239 10.0001 10 9.78607 10 9.49542V8.50479C10 8.25703 10.1833 8.05097 10.4123 8.00824L10.5 8.00011ZM13.5 8.00011C13.7761 8.00011 14 8.21414 14 8.50479V9.49542C14 9.74318 13.8167 9.94924 13.5877 9.99197L13.5 10.0001C13.2239 10.0001 13 9.78607 13 9.49542V8.50479C13 8.25703 13.1833 8.05097 13.4123 8.00824L13.5 8.00011Z" fill="#3D474D"/>
</svg>

<svg width="24" height="24" fill="none" xmlns="http://www.w3.org/2000/svg"><path fill-rule="evenodd" clip-rule="evenodd" d="M17 .361V6.56l.23-.122c.525-.296.961-.632 1.287-.992l.134-.156.58-.723.766.526C22.512 6.822 24 9.304 24 12c0 .364-.027.725-.08 1.083l-.07.46-.396.244a5.133 5.133 0 00-2.314 3.15l-.273 1.128-1.075-.437a5.336 5.336 0 00-2.015-.39c-2.143 0-4.043 1.262-4.85 3.154l-.92 2.155-.92-2.155c-.807-1.892-2.707-3.154-4.85-3.154-.565 0-1.117.086-1.641.254l-.996.32-.274-1.01a5.157 5.157 0 00-2.73-3.265l-.497-.242-.06-.549A6.9 6.9 0 010 12c0-2.7 1.492-5.186 4.014-6.915l.766-.525.58.725c.336.419.818.809 1.417 1.147L7 6.553V.361l3.425 3.871.197-.085c.364-.144.75-.231 1.146-.257l.24-.007c.477 0 .942.09 1.377.261l.194.083 3.42-3.866zm-2 5.277l-1.108 1.253-.743-.596a1.812 1.812 0 00-1.142-.412c-.415 0-.81.145-1.147.416l-.743.6L9 5.64v3.782l-1.308-.425c-1.226-.398-2.288-.962-3.104-1.655l-.113-.1-.041.033c-1.49 1.25-2.35 2.822-2.428 4.477L2 12.025l.204.126a7.175 7.175 0 012.676 3.083l.051.118.322-.05c.216-.028.433-.047.653-.057l.33-.007a7.296 7.296 0 015.751 2.781l.018.025.192-.237a7.297 7.297 0 015.304-2.564l.275-.005c.481 0 .956.046 1.419.136l.333.073.04-.095a7.156 7.156 0 012.345-2.938l.071-.05.009-.1L22 12c0-1.743-.868-3.409-2.427-4.72l-.041-.034-.114.102c-.743.63-1.69 1.153-2.78 1.54l-.33.113L15 9.423V5.638zM10.5 8c.276 0 .5.214.5.505v.99a.51.51 0 01-.412.497L10.5 10a.495.495 0 01-.5-.505v-.99a.51.51 0 01.412-.497L10.5 8zm3 0c.276 0 .5.214.5.505v.99a.51.51 0 01-.412.497L13.5 10a.495.495 0 01-.5-.505v-.99a.51.51 0 01.412-.497L13.5 8z" fill="#3D474D"/></svg>
